public/formular-icons/greece/lower-kappa.svg

<svg style="vertical-align:-.025ex" xmlns="http://www.w3.org/2000/svg" width="1.303ex" height="1.025ex" viewBox="0 -442 576 453" xmlns:xlink="http://www.w3.org/1999/xlink"><defs><path id="a" d="M83-11q-13 0-21 7T51 8t-2 9q0 13 47 200t51 197q13 28 46 28 12-1 20-7t10-13 2-10q0-11-17-75l-16-67q1-1 16 7t27 15q17 12 71 57t90 63 71 19q22 0 33-11t12-29q0-25-18-44t-45-20q-19 0-31 11t-13 30q0 2 2 12l-10-5q-29-15-82-60l-62-49-13-9h5q17 0 55-6t66-21q56-27 56-80 0-10-5-36t-6-47q0-41 26-41 47 0 76 111 3 12 6 14t16 2q19 0 19-9 0-23-27-80T457-7q-10-3-26-3-45 0-71 27t-27 73q0 18 3 32t3 24q0 24-19 40t-49 23-49 9-37 3h-5l-25-99Q129 22 126 16q-13-27-43-27Z"/></defs><g stroke="currentColor" fill="currentColor" stroke-width="0"><use data-c="1D705" xlink:href="#a" transform="scale(1 -1)"/></g></svg>

<svg style="vertical-align: -0.025ex" xmlns="http://www.w3.org/2000/svg" width="1.303ex" height="1.025ex" role="img" focusable="false" viewBox="0 -442 576 453" xmlns:xlink="http://www.w3.org/1999/xlink"><defs><path id="MJX-104-TEX-I-1D705" d="M83 -11Q70 -11 62 -4T51 8T49 17Q49 30 96 217T147 414Q160 442 193 442Q205 441 213 435T223 422T225 412Q225 401 208 337L192 270Q193 269 208 277T235 292Q252 304 306 349T396 412T467 431Q489 431 500 420T512 391Q512 366 494 347T449 327Q430 327 418 338T405 368Q405 370 407 380L397 375Q368 360 315 315L253 266L240 257H245Q262 257 300 251T366 230Q422 203 422 150Q422 140 417 114T411 67Q411 26 437 26Q484 26 513 137Q516 149 519 151T535 153Q554 153 554 144Q554 121 527 64T457 -7Q447 -10 431 -10Q386 -10 360 17T333 90Q333 108 336 122T339 146Q339 170 320 186T271 209T222 218T185 221H180L155 122Q129 22 126 16Q113 -11 83 -11Z"></path></defs><g stroke="currentColor" fill="currentColor" stroke-width="0" transform="scale(1,-1)"><g data-mml-node="math"><g data-mml-node="mi"><use data-c="1D705" xlink:href="#MJX-104-TEX-I-1D705"></use></g></g></g></svg>
